X: 10371
M: 2/4
L: 1/16
K: D
|:\
a3fd2d2 | cdec d2A2 |\
defd efge | fagf {f}e4 |\
a3fd2d2 | cdec d2A2 |\
defd efge | f2Te2 d4 :|
|:\
!p!d2d2Td2AF | d2fd ~e2ge |\
d2d2 d2AF | E2FG F2D2 :|


